!!!ONB: MCCC : IJB0066_04 : Extracted Monophonic Melody
!!!COM: Bach, Johann Sebastian
!!!OPR: Cello Suite No.4
!!!OMV: 4
!!!SCT: BWV 1010
!!!ODT: 1717///
**kern
*thru
*Icello
*>A
*clefF4
*k[b-e-a-]
*E-:
*M3/4
*MM104
=1-
4B-
4c
4d-
=2
8.d-
16B-
4c[
16c]
16B-
16A-
16G
=3
4F
4G
4A-
=4
8.A-
16F
8.G
16B-
4E-
=5
8.E-
16C
8.D
16F
4A-
=6
8.A-
16F
8.G
16B-
4d-
=7
8.d-
16B-
8.c
16e
4g
=8
4B-
8.A
16G
8.F
16E-
=9
8.B-
16d
8.f
16A-
4B-
=10
8.B-
16d
8.g
16A
4B-
=11
8B-
16A
16G
8F
8E-
8D
16E-
16C
=12
2.BB-
=13
*>A
4B-
4c
4d-
=2
8.d-
16B-
4c[
16c]
16B-
16A-
16G
=3
4F
4G
4A-
=4
8.A-
16F
8.G
16B-
4E-
=5
8.E-
16C
8.D
16F
4A-
=6
8.A-
16F
8.G
16B-
4d-
=7
8.d-
16B-
8.c
16e
4g
=8
4B-
8.A
16G
8.F
16E-
=9
8.B-
16d
8.f
16A-
4B-
=10
8.B-
16d
8.g
16A
4B-
=11
8B-
16A
16G
8F
8E-
8D
16E-
16C
=12
2.BB-
=13
*>B
4F
4G
4A-
=14
8.A-
16F
4G[
16G]
16F
16E-
16D
=15
4e-
4d
4c
=16
8.c
16A
8.B
16d
8.G
16F
=17
4E
4F
4G
=18
8.A-
16F
8.D
16B
4c[
=19
8.c]
16d
4.d
8c
=20
8.c
16G
8.E-
16G
8.C
16BB-
=21
4c
4d
4e-
=22
8.e-
16c
8.d
16f
4A-
=23
8.A-
16F
8.G
16B-
4E-
=24
8.E-
16C
8.D
16F
8.BB-
16AA-
=25
8.E-
16G
8.B-
16D
4E-
=26
8.E-
16G
8.c
16D
4E-
=27
8.E-
16A-
8.G
16F
8E-
16F
16D
=28
8E-
16G
16B-
8e-
16B-
16G
4E-
=29
8.E-
16G-
8.c
16F
4e-
=30
8e-
16d
16c
8.d
16f
4B-
=31
8B-
16A-
16G
8F
8E-
8BB-
16E-
16D
=32
16EE-
16GG
16BB-
16D
16E-
16G
16B-
16d
4e-
=33
*>B
4F
4G
4A-
=14
8.A-
16F
4G[
16G]
16F
16E-
16D
=15
4e-
4d
4c
=16
8.c
16A
8.B
16d
8.G
16F
=17
4E
4F
4G
=18
8.A-
16F
8.D
16B
4c[
=19
8.c]
16d
4.d
8c
=20
8.c
16G
8.E-
16G
8.C
16BB-
=21
4c
4d
4e-
=22
8.e-
16c
8.d
16f
4A-
=23
8.A-
16F
8.G
16B-
4E-
=24
8.E-
16C
8.D
16F
8.BB-
16AA-
=25
8.E-
16G
8.B-
16D
4E-
=26
8.E-
16G
8.c
16D
4E-
=27
8.E-
16A-
8.G
16F
8E-
16F
16D
=28
8E-
16G
16B-
8e-
16B-
16G
4E-
=29
8.E-
16G-
8.c
16F
4e-
=30
8e-
16d
16c
8.d
16f
4B-
=31
8B-
16A-
16G
8F
8E-
8BB-
16E-
16D
=32
16EE-
16GG
16BB-
16D
16E-
16G
16B-
16d
4e-
==
*-
